X:475
T:a Rigadoon
A:Wyresdale, Lancashire
B:E and J Winder, 1835-41
L:1/4
M:6/4
O:England
Z:Richard Robinson 
%%TUNEURL: http://www.leeds.ac.uk/music/Info/RRTuneBk/gettune/00000ed2.html
%%ID:00000ed2
K:A min
A |\
AEA A2B | (c3 c2)d/e/ | f>ge d>cd | e3-e2 ::
e |\
ece e2f | g2d c2d | dBd e2e | g2-g2e | e>dc B2A | A3-A2 ::
%%newpage
% X:96
% T:A Minuet
% is an incomplete copy of X:101
%page 29
